public/avatar/hat/133.svg

<svg xmlns:xlink="http://www.w3.org/1999/xlink" height="92.9" width="100.7" xmlns="http://www.w3.org/2000/svg"><use height="30.9" transform="translate(22 33.3)" width="33.25" xlink:href="#a"/><defs><g id="a" fill-rule="evenodd"><path d="M3-11.3q2.05.75 4.05 2.75 1.8 1.9 2.4 3.6.45 1.25.2 2.9 3.05 1.15 4.7 4.2 4.55 8.4-.15 11.6l-1 .7q-.3-1.95-1.5-4-2.35-4.05-6.65-4.4Q1.1 5.7-.1 3.75q-1.1 1.95-5.1 2.3-4.3.35-6.75 4.3l-1.65 3.85-.65-.45q-4.65-3.2-.2-11.6 1.5-2.75 4.1-3.95-1.15-2.8 2.85-6.8 1.9-1.8 5.15-2.65Q.9-12.1 3-11.3" fill="#8c8a86" transform="translate(16.65 16.45)"/><path d="M8.55-4.4q1.2 3.65-2 6.15l-2.95.1-4-.35q-.7.1-2.3 1.6-1.3 1.15-1.85.6L-7.6.9Q-8.8-.15-9.5-1.35q-1.4-2.6 2.45-6.35 1.7-1.65 4.7-2.45 3.1-.85 5-.1 1.85.7 3.65 2.55 1.75 1.75 2.25 3.3" fill="#c4c4c4" transform="translate(16.65 16.45)"/><path d="M3.65-1.95q7.15-.25 9.65 4.5 4.2 7.7 0 10.55-.2-1.8-1.35-3.7-2.25-3.75-6.7-4.15Q.8 4.9 0 2.7L.1.6.7-.65q1-1.25 2.95-1.3m-17.3 15.05q-4.1-2.85 0-10.55 2.5-4.7 9.65-4.5Q-.9-1.85-.5.6l.1 2.1q-.8 2.2-5.25 2.55-4.45.4-6.65 4.15l-1.35 3.7" fill="#c4c4c4" transform="translate(16.65 16.45)"/><path d="m9-2-.25.5q-4.1-.5-5.9 0Q1.45-1.1.5.3l-.65 1.35L.2.3q.65-1.45 2-2.15Q4.4-2.9 9-2M-9.3-2l2.6-.3 4.2.45q2.2 1.1 2.35 3.5-.75-2.5-3-3.15h-5.9L-9.3-2m-4.15 7.5q-.9 1.35-1.45 3.85l-.4 2.5 1.25-2.6-.3 3.75q-2.05-1.7-1.8-4.85l2.6-6.55L-12.2.45q1.55-1.1 2.6-1.15l-3.45 3.55q.85-.65 1.8-.9-1.85 1.2-3.5 4.3l-1.3 2.85 2.6-3.6m27.8-1.35Q11.25.4 10.2-.25q2.05.9 3.1 1.85l1.05 2.55m1.6 4q.15 3.2-1.85 4.85.2-2.6-.3-3.75l1.25 2.6q-.4-3.5-1.25-4.95l2.05 2.2Q13.6 4.15 12 2.85q1.4.55 2.4 1.5l1.55 3.8" fill="#8c8a86" transform="translate(16.65 16.45)"/><path d="M-11.4 3.2q4-4.25 8.65-2.85Q-4.45-.9-7.15-.7l-2.4.45 2-.8 4.55.2Q-.55.1-1.1 2.1-1.65 4-3.95 4.5L-9.1 5.75Q-12.3 7.3-13.95 12q.7-5.5 5.35-7.55Q-6.2 3.4-3.4 3q-7.95.25-10.15 5Q-12 2.15-3.9 1.85q-1.75-.4-4.15-.05-2.35.4-3.35 1.4" fill="#e2e1e1" transform="translate(16.65 16.45)"/><path d="M5.4-1.95q3.3.45 3.85-1.65.15 2.1-.2 2.2L5.4-1.95M1.9-10.6l2.25 1.7q2.05 2.5.9 6.65H4.4q.65-1.65.55-3.5-.25-3.75-4-4.9l.95.05" fill="#8c8a86" transform="translate(16.65 16.45)"/><path d="m7.7-6.85.05.65q.2 2.3-1.2 4.1l-.4-.15q2.35-2.9.8-5.4l.75.8" fill="#8c8a86" transform="translate(16.65 16.45)"/><path d="M2.6-.85q3.45-1.3 6.55.6-4.1-1.4-6.75.6Q7.05-1 11.15 3.25 10.1 2.2 7.7 1.8q-2.4-.35-4.2.05 8.1.3 9.65 6.15-2.1-4.75-10.1-5 .45.4 5.15 1.45Q12.85 6.5 13.55 12q-1.6-4.7-4.85-6.25L3.6 4.5Q1.3 4 .75 2.1.2.1 2.6-.85" fill="#e2e1e1" transform="translate(16.65 16.45)"/><path d="m10.2-16.3.75 1 .05.45-.2.8q-.35.6-1 .75l-.2.05-2.35 5.1 3.2-3.7-.1-.6q0-1.65 1.55-1.65 1.65 0 1.65 1.65 0 1.6-1.65 1.6h-.15L5.8-3.75q-.7 0-1-.35l-.3-.8-.4-.7 4-8.3-.25-.55q-.45-1.55 1.1-2l1.25.15" fill="#585d59" transform="translate(16.65 16.45)"/><path d="M5.1-4.2 5-4.65l5.85-6.85.5.4-5.8 6.95-.45-.05" fill="#d9f1f7" transform="translate(16.65 16.45)"/><path d="M12.95-12.4q0 1.15-1.1 1.15t-1.1-1.15q0-1.1 1.1-1.1t1.1 1.1" fill="#c4e2e7" transform="translate(16.65 16.45)"/><path d="m4.85-5.1-.25-.4 3.95-8.2.55.3-3.8 8.2-.45.1" fill="#d9f1f7" transform="translate(16.65 16.45)"/><path d="M10.45-15.2q.25 1.05-.8 1.4-1.1.3-1.35-.8-.25-1.05.8-1.4 1.1-.25 1.35.8" fill="#c4e2e7" transform="translate(16.65 16.45)"/><path d="m-5.9-2.05-4.05.65.1-3.05L-9.2-3q1.05 1.25 3.3.95m3.15-8.55 1.1.1q-3.8 1.15-4 4.8-.15 1.85.5 3.45h-.8Q-7.05-6.4-5-8.9q1-1.25 2.25-1.7" fill="#8c8a86" transform="translate(16.65 16.45)"/><path d="m-8.55-6.85 1.2-1.25q-.95 1.55-.4 3.85l.75 2-.75.2Q-8.85-3.5-8.6-6.2l.05-.65" fill="#8c8a86" transform="translate(16.65 16.45)"/><path d="M.25-2.4.35-5l-1-4.25.8-.75q1.2.85 2.2 3.9.9 2.9.45 3.2l-2.55.5m-2.2-.25q-1.4-.2-1.55-.5l.55-5.7h.9q-.35.7-.15 3.5l.25 2.7" fill="#e2e1e1" transform="translate(16.65 16.45)"/><path d="m1.1-8 1.2 1.8q.25.4.1.6h-.2l-.1.05q1.1 2.4 1.1 3.3v.05q-.05.8-2.15 2.45h.75L.5 1.2l-2.45 1.25-.75.35q-1.9.8-3.95 1.15l-.1.05v.05q.2.3-.15.55h-.35q-5 .7-5.8-.8l-.2-.3-1-1.55-.1-.35.15-.25.2-.05-1.05-2.85-.1-.55q0-1.05 1.55-2.3l.45-.3v-.05l.35-.55q1.3-.8 4.3-1.95l.65-.25q1.8-.75 4.95-1.05 3.55-.4 4 .55" fill="#7c3a04" transform="translate(16.65 16.45)"/><path d="M.65-.1Q-.7.8.15.75L-2.8 2.2q-1.35.65-3.6 1.1l-.75.3q.45.25.2.3-1.5.2-3.2 0-1.6-.2-1.75-.55L-13 1.7q.45.05.4-.15l-1.15-3.2q-.4-.8 1.2-2.05l.85-.6-.15-.25 4.6-2.05q1.8-.7 4.65-1l3.15.3L1.7-5.65h-.25q-.3-.1-.05.4 1.1 2.4 1.1 3.15 0 .6-1.85 2" fill="#bc7927" transform="translate(16.65 16.45)"/><path d="m-11.15-4.55 5-1.75 5.7-.85q1.65 0-1.45 1.85-4.5 2.7-6.25 2.9-1.85.2-.4-.5-2.1.75-3.25.85l-1.25-.45 1.8-1.5q.7-.5.1-.55" fill="#8e4d0f" transform="translate(16.65 16.45)"/><path d="M.55-5.5 1.7-2.9q.4.8 0 1.15l-.75.8L.3-2.5l-1-2.1 1.25-.9m-3.6 2.3.75 2.1.75 2.1-1 .7-1.45.5-1.3-3.85q-.2-.65.25-.75l2-.8M-8.3-1.25l1 2.5q.1.35-.5.1l.4 1.6q-1 .75-1.5.3L-9.55 1q-1.25-1.55-.7-2l1.95-.25" fill="#b3671c" transform="translate(16.65 16.45)"/><path d="M-13.75-1.65q.6.35 2.35.6l.5 1.1q.8 1.6.3 1.1-.5-.15 0 .75l.9 2.05q-1.5 0-2.15-.5-.55-.3-1.15-1.75l.4-.15-1.15-3.2" fill="#a75718" transform="translate(16.65 16.45)"/><path d="m-13-.9.85.1q1.6 3.85 1.1 4-.2.05-1-1.25L-13-.9" fill="#b3671c" transform="translate(16.65 16.45)"/></g></defs></svg>

<?xml version="1.0" encoding="UTF-8" standalone="no"?>
<svg xmlns:xlink="http://www.w3.org/1999/xlink" height="92.9px" width="100.7px" xmlns="http://www.w3.org/2000/svg">
  <g transform="matrix(1.0, 0.0, 0.0, 1.0, 38.65, 49.75)">
    <use height="30.9" transform="matrix(1.0, 0.0, 0.0, 1.0, -16.65, -16.45)" width="33.25" xlink:href="#shape0"/>
  </g>
  <defs>
    <g id="shape0" transform="matrix(1.0, 0.0, 0.0, 1.0, 16.65, 16.45)">
      <path d="M3.0 -11.3 Q5.05 -10.55 7.05 -8.55 8.85 -6.65 9.45 -4.95 9.9 -3.7 9.65 -2.05 12.7 -0.9 14.35 2.15 18.9 10.55 14.2 13.75 L13.2 14.45 Q12.9 12.5 11.7 10.45 9.35 6.4 5.05 6.05 1.1 5.7 -0.1 3.75 -1.2 5.7 -5.2 6.05 -9.5 6.4 -11.95 10.35 L-13.6 14.2 -14.25 13.75 Q-18.9 10.55 -14.45 2.15 -12.95 -0.6 -10.35 -1.8 -11.5 -4.6 -7.5 -8.6 -5.6 -10.4 -2.35 -11.25 0.9 -12.1 3.0 -11.3" fill="#8c8a86" fill-rule="evenodd" stroke="none"/>
      <path d="M8.55 -4.4 Q9.75 -0.75 6.55 1.75 L3.6 1.85 -0.4 1.5 Q-1.1 1.6 -2.7 3.1 -4.0 4.25 -4.55 3.7 L-7.6 0.9 Q-8.8 -0.15 -9.5 -1.35 -10.9 -3.95 -7.05 -7.7 -5.35 -9.35 -2.35 -10.15 0.75 -11.0 2.65 -10.25 4.5 -9.55 6.3 -7.7 8.05 -5.95 8.55 -4.4" fill="#c4c4c4" fill-rule="evenodd" stroke="none"/>
      <path d="M3.65 -1.95 Q10.8 -2.2 13.3 2.55 17.5 10.25 13.3 13.1 13.1 11.3 11.95 9.4 9.7 5.65 5.25 5.25 0.8 4.9 0.0 2.7 L0.1 0.6 0.7 -0.65 Q1.7 -1.9 3.65 -1.95" fill="#c4c4c4" fill-rule="evenodd" stroke="none"/>
      <path d="M-13.65 13.1 Q-17.75 10.25 -13.65 2.55 -11.15 -2.15 -4.0 -1.95 -0.9 -1.85 -0.5 0.6 L-0.4 2.7 Q-1.2 4.9 -5.65 5.25 -10.1 5.65 -12.3 9.4 L-13.65 13.1" fill="#c4c4c4" fill-rule="evenodd" stroke="none"/>
      <path d="M9.0 -2.0 L8.75 -1.5 Q4.65 -2.0 2.85 -1.5 1.45 -1.1 0.5 0.3 L-0.15 1.65 0.2 0.3 Q0.85 -1.15 2.2 -1.85 4.4 -2.9 9.0 -2.0" fill="#8c8a86" fill-rule="evenodd" stroke="none"/>
      <path d="M-9.3 -2.0 L-6.7 -2.3 -2.5 -1.85 Q-0.3 -0.75 -0.15 1.65 -0.9 -0.85 -3.15 -1.5 L-9.05 -1.5 -9.3 -2.0" fill="#8c8a86" fill-rule="evenodd" stroke="none"/>
      <path d="M-13.45 5.5 Q-14.35 6.85 -14.9 9.35 L-15.3 11.85 -14.05 9.25 -14.35 13.0 Q-16.4 11.3 -16.15 8.15 L-13.55 1.6 -12.2 0.45 Q-10.65 -0.65 -9.6 -0.7 L-13.05 2.85 Q-12.2 2.2 -11.25 1.95 -13.1 3.15 -14.75 6.25 L-16.05 9.1 -13.45 5.5" fill="#8c8a86" fill-rule="evenodd" stroke="none"/>
      <path d="M14.35 4.15 Q11.25 0.4 10.2 -0.25 12.25 0.65 13.3 1.6 L14.35 4.15 M15.95 8.15 Q16.1 11.35 14.1 13.0 14.3 10.4 13.8 9.25 L15.05 11.85 Q14.65 8.35 13.8 6.9 L15.85 9.1 Q13.6 4.15 12.0 2.85 13.4 3.4 14.4 4.35 L15.95 8.15" fill="#8c8a86" fill-rule="evenodd" stroke="none"/>
      <path d="M-11.4 3.2 Q-7.4 -1.05 -2.75 0.35 -4.45 -0.9 -7.15 -0.7 L-9.55 -0.25 -7.55 -1.05 -3.0 -0.85 Q-0.55 0.1 -1.1 2.1 -1.65 4.0 -3.95 4.5 L-9.1 5.75 Q-12.3 7.3 -13.95 12.0 -13.25 6.5 -8.6 4.45 -6.2 3.4 -3.4 3.0 -11.35 3.25 -13.55 8.0 -12.0 2.15 -3.9 1.85 -5.65 1.45 -8.05 1.8 -10.4 2.2 -11.4 3.2" fill="#e2e1e1" fill-rule="evenodd" stroke="none"/>
      <path d="M5.4 -1.95 Q8.7 -1.5 9.25 -3.6 9.4 -1.5 9.05 -1.4 L5.4 -1.95" fill="#8c8a86" fill-rule="evenodd" stroke="none"/>
      <path d="M1.9 -10.6 L4.15 -8.9 Q6.2 -6.4 5.05 -2.25 L4.4 -2.25 Q5.05 -3.9 4.95 -5.75 4.7 -9.5 0.95 -10.65 L1.9 -10.6" fill="#8c8a86" fill-rule="evenodd" stroke="none"/>
      <path d="M7.7 -6.85 L7.75 -6.2 Q7.95 -3.9 6.55 -2.1 L6.15 -2.25 Q8.5 -5.15 6.95 -7.65 L7.7 -6.85" fill="#8c8a86" fill-rule="evenodd" stroke="none"/>
      <path d="M2.6 -0.85 Q6.05 -2.15 9.15 -0.25 5.05 -1.65 2.4 0.35 7.05 -1.0 11.15 3.25 10.1 2.2 7.7 1.8 5.3 1.45 3.5 1.85 11.6 2.15 13.15 8.0 11.05 3.25 3.05 3.0 3.5 3.4 8.2 4.45 12.85 6.5 13.55 12.0 11.95 7.3 8.7 5.75 L3.6 4.5 Q1.3 4.0 0.75 2.1 0.2 0.1 2.6 -0.85" fill="#e2e1e1" fill-rule="evenodd" stroke="none"/>
      <path d="M10.2 -16.3 L10.95 -15.3 11.0 -14.85 10.8 -14.05 Q10.45 -13.45 9.8 -13.3 L9.6 -13.25 7.25 -8.15 10.45 -11.85 10.35 -12.45 Q10.35 -14.1 11.9 -14.1 13.55 -14.1 13.55 -12.45 13.55 -10.85 11.9 -10.85 L11.75 -10.85 5.8 -3.75 Q5.1 -3.75 4.8 -4.1 L4.5 -4.9 4.1 -5.6 8.1 -13.9 7.85 -14.45 Q7.4 -16.0 8.95 -16.45 L10.2 -16.3" fill="#585d59" fill-rule="evenodd" stroke="none"/>
      <path d="M5.1 -4.2 L5.0 -4.65 10.85 -11.5 11.35 -11.1 5.55 -4.15 5.1 -4.2" fill="#d9f1f7" fill-rule="evenodd" stroke="none"/>
      <path d="M12.95 -12.4 Q12.95 -11.25 11.85 -11.25 10.75 -11.25 10.75 -12.4 10.75 -13.5 11.85 -13.5 12.95 -13.5 12.95 -12.4" fill="#c4e2e7" fill-rule="evenodd" stroke="none"/>
      <path d="M4.85 -5.1 L4.6 -5.5 8.55 -13.7 9.1 -13.4 5.3 -5.2 4.85 -5.1" fill="#d9f1f7" fill-rule="evenodd" stroke="none"/>
      <path d="M10.45 -15.2 Q10.7 -14.15 9.65 -13.8 8.55 -13.5 8.3 -14.6 8.05 -15.65 9.1 -16.0 10.2 -16.25 10.45 -15.2" fill="#c4e2e7" fill-rule="evenodd" stroke="none"/>
      <path d="M-5.9 -2.05 L-9.95 -1.4 -9.85 -4.45 -9.2 -3.0 Q-8.15 -1.75 -5.9 -2.05" fill="#8c8a86" fill-rule="evenodd" stroke="none"/>
      <path d="M-2.75 -10.6 L-1.65 -10.5 Q-5.45 -9.35 -5.65 -5.7 -5.8 -3.85 -5.15 -2.25 L-5.95 -2.25 Q-7.05 -6.4 -5.0 -8.9 -4.0 -10.15 -2.75 -10.6" fill="#8c8a86" fill-rule="evenodd" stroke="none"/>
      <path d="M-8.55 -6.85 L-7.35 -8.1 Q-8.3 -6.55 -7.75 -4.25 L-7.0 -2.25 -7.75 -2.05 Q-8.85 -3.5 -8.6 -6.2 L-8.55 -6.85" fill="#8c8a86" fill-rule="evenodd" stroke="none"/>
      <path d="M0.25 -2.4 L0.35 -5.0 -0.65 -9.25 0.15 -10.0 Q1.35 -9.15 2.35 -6.1 3.25 -3.2 2.8 -2.9 L0.25 -2.4" fill="#e2e1e1" fill-rule="evenodd" stroke="none"/>
      <path d="M-1.95 -2.65 Q-3.35 -2.85 -3.5 -3.15 L-2.95 -8.85 -2.05 -8.85 Q-2.4 -8.15 -2.2 -5.35 L-1.95 -2.65" fill="#e2e1e1" fill-rule="evenodd" stroke="none"/>
      <path d="M1.1 -8.0 L2.3 -6.2 Q2.55 -5.8 2.4 -5.6 L2.2 -5.6 2.1 -5.55 Q3.2 -3.15 3.2 -2.25 L3.2 -2.2 Q3.15 -1.4 1.05 0.25 L1.8 0.25 0.5 1.2 -1.95 2.45 -2.7 2.8 Q-4.6 3.6 -6.65 3.95 L-6.75 4.0 -6.75 4.05 Q-6.55 4.35 -6.9 4.6 L-7.25 4.6 Q-12.25 5.3 -13.05 3.8 L-13.25 3.5 -14.25 1.95 -14.35 1.6 -14.2 1.35 -14.0 1.3 -15.05 -1.55 -15.15 -2.1 Q-15.15 -3.15 -13.6 -4.4 L-13.15 -4.7 -13.15 -4.75 -12.8 -5.3 Q-11.5 -6.1 -8.5 -7.25 L-7.85 -7.5 Q-6.05 -8.25 -2.9 -8.55 0.65 -8.95 1.1 -8.0" fill="#7c3a04" fill-rule="evenodd" stroke="none"/>
      <path d="M0.65 -0.1 Q-0.7 0.8 0.15 0.75 L-2.8 2.2 Q-4.15 2.85 -6.4 3.3 L-7.15 3.6 Q-6.7 3.85 -6.95 3.9 -8.45 4.1 -10.15 3.9 -11.75 3.7 -11.9 3.35 L-13.0 1.7 Q-12.55 1.75 -12.6 1.55 L-13.75 -1.65 Q-14.15 -2.45 -12.55 -3.7 L-11.7 -4.3 -11.85 -4.55 -7.25 -6.6 Q-5.45 -7.3 -2.6 -7.6 L0.55 -7.3 1.7 -5.65 1.45 -5.65 Q1.15 -5.75 1.4 -5.25 2.5 -2.85 2.5 -2.1 2.5 -1.5 0.65 -0.1" fill="#bc7927" fill-rule="evenodd" stroke="none"/>
      <path d="M-11.15 -4.55 L-6.15 -6.3 -0.45 -7.15 Q1.2 -7.15 -1.9 -5.3 -6.4 -2.6 -8.15 -2.4 -10.0 -2.2 -8.55 -2.9 -10.65 -2.15 -11.8 -2.05 L-13.05 -2.5 -11.25 -4.0 Q-10.55 -4.5 -11.15 -4.55" fill="#8e4d0f" fill-rule="evenodd" stroke="none"/>
      <path d="M0.55 -5.5 L1.7 -2.9 Q2.1 -2.1 1.7 -1.75 L0.95 -0.95 0.3 -2.5 -0.7 -4.6 0.55 -5.5" fill="#b3671c" fill-rule="evenodd" stroke="none"/>
      <path d="M-3.05 -3.2 L-2.3 -1.1 -1.55 1.0 -2.55 1.7 -4.0 2.2 -5.3 -1.65 Q-5.5 -2.3 -5.05 -2.4 L-3.05 -3.2" fill="#b3671c" fill-rule="evenodd" stroke="none"/>
      <path d="M-8.3 -1.25 L-7.3 1.25 Q-7.2 1.6 -7.8 1.35 L-7.4 2.95 Q-8.4 3.7 -8.9 3.25 L-9.55 1.0 Q-10.8 -0.55 -10.25 -1.0 L-8.3 -1.25" fill="#b3671c" fill-rule="evenodd" stroke="none"/>
      <path d="M-13.75 -1.65 Q-13.15 -1.3 -11.4 -1.05 L-10.9 0.05 Q-10.1 1.65 -10.6 1.15 -11.1 1.0 -10.6 1.9 L-9.7 3.95 Q-11.2 3.95 -11.85 3.45 -12.4 3.15 -13.0 1.7 L-12.6 1.55 -13.75 -1.65" fill="#a75718" fill-rule="evenodd" stroke="none"/>
      <path d="M-13.0 -0.9 L-12.15 -0.8 Q-10.55 3.05 -11.05 3.2 -11.25 3.25 -12.05 1.95 L-13.0 -0.9" fill="#b3671c" fill-rule="evenodd" stroke="none"/>
    </g>
  </defs>
</svg>
